X:1
T: Salmon Tails up the Water
C: Traditional, England
R: Polka
M: 4/4
L: 1/8
K: G
"G"G2E2 D2E2|"G"G4 G3A|"G"B2d2 "D"A2BA|"C"G2E2 "D"D2E2|
"G"G2E2 D2E2|"G"G4 G3A|"G"B2d2 "D7"A2BA|"G"G4-G4:|
|:"G"B2d2 d4|"C"c2e2 e4|"G"d2B2 "D"A2BA|"C"G2E2 "D"D4|1
"G"B2d2 d4|"C"c2e2 e3f|"G"g2f2 e2d2|"D7"e2f2 "G"g4:|2
"G"G2E2D2E2|"G"G4 G3A|"G"B2d2 "D7"A2BA|"G"G4-G4|]